src/lib/packages/icons/src/assets/line/file-code.svg

<svg xmlns="http://www.w3.org/2000/svg" width="24" height="24" fill="none"><path fill="currentColor" d="m20.53 8.47-6-6a.749.749 0 0 0-.53-.22H8C5.582 2.25 4.25 3.582 4.25 6v12c0 2.418 1.332 3.75 3.75 3.75h9c2.418 0 3.75-1.332 3.75-3.75V9a.747.747 0 0 0-.22-.53Zm-5.78-3.659 3.439 3.439H17c-1.577 0-2.25-.673-2.25-2.25V4.811ZM17 20.25H8c-1.577 0-2.25-.673-2.25-2.25V6c0-1.577.673-2.25 2.25-2.25h5.25V6c0 2.418 1.332 3.75 3.75 3.75h2.25V18c0 1.577-.673 2.25-2.25 2.25Zm-6.47-5.72L9.06 16l1.47 1.47a.75.75 0 0 1-1.06 1.061l-2-2a.75.75 0 0 1 0-1.061l2-2a.75.75 0 0 1 1.06 1.06Zm5 .94a.75.75 0 0 1 0 1.061l-2 2a.748.748 0 0 1-1.06 0 .75.75 0 0 1 0-1.061L13.94 16l-1.47-1.47a.75.75 0 1 1 1.061-1.061l1.999 2.001Z"/></svg>

<svg width="24" height="24" viewBox="0 0 24 24" fill="none" xmlns="http://www.w3.org/2000/svg">
<path d="M20.53 8.47L14.53 2.47C14.389 2.329 14.199 2.25 14 2.25H8C5.582 2.25 4.25 3.582 4.25 6V18C4.25 20.418 5.582 21.75 8 21.75H17C19.418 21.75 20.75 20.418 20.75 18V9C20.75 8.801 20.671 8.61 20.53 8.47ZM14.75 4.811L18.189 8.25H17C15.423 8.25 14.75 7.577 14.75 6V4.811ZM17 20.25H8C6.423 20.25 5.75 19.577 5.75 18V6C5.75 4.423 6.423 3.75 8 3.75H13.25V6C13.25 8.418 14.582 9.75 17 9.75H19.25V18C19.25 19.577 18.577 20.25 17 20.25ZM10.53 14.53L9.06006 16L10.53 17.47C10.823 17.763 10.823 18.238 10.53 18.531C10.384 18.677 10.192 18.751 10 18.751C9.808 18.751 9.61597 18.678 9.46997 18.531L7.46997 16.531C7.17697 16.238 7.17697 15.763 7.46997 15.47L9.46997 13.47C9.76297 13.177 10.238 13.177 10.531 13.47C10.824 13.763 10.823 14.237 10.53 14.53ZM15.53 15.47C15.823 15.763 15.823 16.238 15.53 16.531L13.53 18.531C13.384 18.677 13.192 18.751 13 18.751C12.808 18.751 12.616 18.678 12.47 18.531C12.177 18.238 12.177 17.763 12.47 17.47L13.9399 16L12.47 14.53C12.177 14.237 12.177 13.762 12.47 13.469C12.763 13.176 13.238 13.176 13.531 13.469L15.53 15.47Z" fill="currentColor"/>
</svg>
